resources/haticons/SVG/360.svg

<!-- Generated by IcoMoon.io -->
<svg version="1.1" xmlns="http://www.w3.org/2000/svg" width="24" height="24" viewBox="0 0 24 24">
<title>360</title>
<path d="M12 6.984q4.125 0 7.055 1.477t2.93 3.539q0 1.547-1.664 2.789t-4.336 1.805v-2.063q1.828-0.469 2.93-1.195t1.102-1.336q0-0.563-0.938-1.242t-2.859-1.219-4.219-0.539-4.219 0.539-2.859 1.219-0.938 1.242q0 0.703 1.406 1.523t3.609 1.195v-2.719l3.984 3.984-3.984 4.031v-3.234q-3.094-0.516-5.039-1.805t-1.945-2.977q0-2.063 2.93-3.539t7.055-1.477z"></path>
</svg>

<svg xmlns="http://www.w3.org/2000/svg" width="24" height="24"><path d="M12 6.984q4.125 0 7.055 1.477T21.985 12q0 1.547-1.664 2.789t-4.336 1.805v-2.063q1.828-.469 2.93-1.195T20.017 12q0-.563-.938-1.242T16.22 9.539 12.001 9t-4.219.539-2.859 1.219T3.985 12q0 .703 1.406 1.523T9 14.718v-2.719l3.984 3.984L9 20.014V16.78q-3.094-.516-5.039-1.805t-1.945-2.977q0-2.063 2.93-3.539t7.055-1.477z"/></svg>
